X:1
T:As fair as morn - Wilbye
T:James Gibb editions
T:#
%%score [ 1 2 3 ] { ( 4 5 ) | 6 }
L:1/8
Q:1/4=120
M:4/4
K:C
V:1 treble nm="Soprano" snm="S"
V:2 treble nm="Alto" snm="A"
V:3 treble-8 nm="Tenor" snm="T"
V:4 treble nm="Practice"
V:5 treble 
V:6 bass 
V:1
 z2 G2 G2 G2 |"^As fair as morn" d3 e d2 c2 | B8 |"^John Wilbye\n(1574-1638)" z8 | z2 B2 A2 A2 | %5
w: As fair as|morn, as fresh as|May,||a pret- ty|
 B2 G2 B2 A2 |[M:4/4] G2 B2 A2 A2 | B2 c2 A2 A2 | G4 B2 Bc | d4 A2 AB | c6 A2 | A2 A2 ^FE=FG | %12
w: grace in say- ing|nay, a pret- ty|grace in say- ing|nay, Smil'st thou sweet-|heart? smil'st thou sweet-|heart? then|sing and say, Ta na na|
 A4 z EEF | G4 z DDE | ^FGAB c2 B2 | A2 G2 B2 A2 | G4 z2 B2 | d4 z2 G2 | d4 z4 | z2 d2 g2 e2 | %20
w: no, ta na na|no, ta na na|na na na na na na|na na na na|no. But|O! but|O!|but O! that|
 ^f2 g2 e2 e2 | d2 G2 c2 A2 | B2 c2 A2 A2 | G2 A2 d4 | z2 G2 d4 | z4 z2 d2 | g2 e2 ^f2 g2 | %27
w: love en- chant- ing|eye, Lo, here my|doubt- ful doom I|try, But O!|but O!|but|O! that love en-|
 e2 e2 d2 G2 | c2 A2 B2 c2 | A2 A2 G3 ^F | (GABc d2) d2 | d2 ^c2 d4- | d2 A2 c3 d | e2 c2 B2 G2 | %34
w: chant- ing eye, Lo,|here my doubt- ful|doom I try, my|doubt\- * * * * ful|doom I try,|* Tell me my|sweet, live I or|
 d8- | d8 | z2 B2 c2 d2 | e2 ^f2 g2 (fe) | d8- | d8 |[M:6/4] d4 z2 c2 c2 c2 |[M:3/2] c6 c2 c2 c2 | %42
w: die?||tell me my|sweet, live I or *|die?||* tell me my|sweet, live I or|
 c6 A2 A2 A2 | A6 A2 A2 A2 | A6 A2 A2 A2 | G6 G2 G2 G2 |[M:4/4] G3 G (BABc x4 | d4) z2 A2 x4 | %48
w: die? tell me my|sweet, live I or|die? tell me my|sweet, live I or|die? She smiles, * * *|* she|
[M:4/4] (cBcd e4) | z2 g2 ^fedc | Bc d2 cBAG | ^F2 G4 F2 | G8 | z4 _B4- | B4 A4 | G8 | z4 c4- | %57
w: smiles, * * * *|fa la la la la|la la la la la la la|la la la|la.|Ah,|* she|frowns,|Ay|
 c4 B4 | z4 d4- | d4 ^F2 G2 | A4 A4 | !fermata!G8 |] x8 |] %63
w: * me,|ay|* me, I|die, I|die.||
V:2
 z8 | z2 D2 D2 D2 | G3 A B2 G2 | ^F3 G A2 A2 | D2 G2 G2 ^F2 | G4 z4 |[M:4/4] z2 G2 G2 ^F2 | %7
w: |As fair as|morn, as fresh as|May, a pret- ty|grace in say- ing|nay,|a pret- ty|
 G2 E2 ^F2 F2 | G4 G2 GA | B4 ^F2 FG | A4 G2 !courtesy!=F2 | E4 DAAB | c4 z GGA | B3 c d2 B2 | %14
w: grace in say- ing|nay, Smil'st thou sweet-|heart? smil'st thou sweet-|heart? then sing|and say, Ta na na|no, ta na na|no, ta na na|
 A2 ^FG A2 G2 | E^F G4 F2 | G2 B2 d4 | z2 A2 B4 | z2 A2 B2 c2 | A2 B2 (^cB) c2 | d2 B2 G2 A2 | %21
w: na na na na na|na na na na|no. But O!|but O!|but O! that|love en- chant\- * ing|eye, Lo, here my|
 D2 E2 (^FE) F2 | G4 z2 A2 | B4 z2 A2 | B4 z2 A2 | B2 c2 A2 B2 | (^cB) c2 d2 B2 | G2 A2 D2 E2 | %28
w: doubt- ful doom * I|try, But|O! but|O! but|O! that love en-|chant\- * ing eye, Lo,|here my doubt- ful|
 (^FE) F2 G4 | z2 d2 B2 B2 | c2 B2 A4 | G4 ^F2 D2 | ^F3 G A2 A2 | (E3 FGA) B2 | A2 A2 G2 B2 | %35
w: doom * I try,|lo here my|doubt- ful doom|I try, Tell|me my sweet, live|I * * * or|die? tell me my|
 A2 G2 G2 ^F2 | G2 G2 A2 (GF) | E4 z2 A2 | B2 ^c2 d2 (=cB) | A2 B2 A2 G2 |[M:6/4] ^F6 A2 G2 =F2 | %41
w: sweet, live I or|die? live I or *|die? tell|me my sweet, my *|sweet, live I or|die? tell me my|
[M:3/2] E3 F G2 A2 G2 F2 | E6 F2 E2 D2 | ^C3 D E2 F2 E2 D2 | ^C6 E2 D2 =C2 | B,3 C D2 E2 D2 C2 | %46
w: sweet, my sweet, live I or|die? tell me my|sweet, my sweet, live I or|die? tell me my|sweet, live I or die? She|
[M:4/4] (B,A,B,C D4) x4 | z2 D2 (^FEFG) x4 |[M:4/4] A4 z2 E2 | (GABc d4) | dcBA G2 cB | A2 G2 A4 | %52
w: smiles, * * * *|she smiles, * * *|* she|smiles, * * * *|fa la la la la la la|la la la|
 B8 | z4 G4- | G4 ^F4 | G8 | z4 E4- | E4 D4 | d4 B4- | B2 A4 G2- | G2 (^FE F4) | !fermata!G8 |] %62
w: la.|Ah,|* she|frowns,|Ay|* me,|ay me,|* I die,|* I * *|die.|
 x8 |] %63
w: |
V:3
 z8 | z8 | z2 G2 G2 G2 | d3 e d2 c2 | B2 G2 d2 d2 | G2 g2 g2 ^f2 |[M:4/4][K:treble-8] g2 G2 d2 d2 | %7
w: ||As fair as|morn, as fresh as|May, a pret- ty|grace in say- ing|nay, a pret- ty|
 G2 c2 d2 d2 | e8 | B2 Bc d4 | A2 AB c2 d2 | A2 A2 d4 | z AAB c4 | z GGA B3 c | d3 c/B/ A2 B2 | %15
w: grace in say- ing|nay,|Smil'st thou sweet- heart?|smil'st thou sweet- heart? then|sing and say,|Ta na na no,|ta na na no, ta|na na na na na|
 c4 d4 | G8 | z2 d2 g4 | z2 d2 g2 e2 | ^f2 g2 e2 e2 | d2 G2 c2 A2 | B2 c2 A2 A2 | G2 c2 d2 d2 | %23
w: na na|no.|But O!|but O! that|love en- chant- ing|eye, Lo, here my|doubt- ful doom I|try, my doom I|
 G4 z2 d2 | g4 z2 d2 | g2 e2 ^f2 g2 | e2 e2 d2 G2 | c2 A2 B2 c2 | A2 A2 G2 c2 | d2 d2 e3 (d | %30
w: try, But|O! but|O! that love en-|chant- ing eye, Lo,|here my doubt- ful|doom I try, lo,|here, lo, here, my|
 ef g2) d2 f2 | e2 e2 d4- | d4 z2 A2 | c3 d e2 g2 | ^f2 d2 B2 G2 | ^F2 G2 d2 d2 | G4 z2 B2 | %37
w: * * * doubt- ful|doom I try,|* Tell|me my sweet, live|I or die? tell|me, live I or|die? tell|
 c2 d2 e2 ^f2 | g2 (^fe) d3 e | ^fd g2 f2 g2 |[M:6/4] d6 f2 e2 f2 | %41
w: me my sweet, live|I or * die? O|tell me, live I or|die? tell me my|
[M:3/2][K:treble-8] c3 d ec f2 e2 f2 | c6 d2 ^c2 d2 | A3 B ^cA d2 c2 d2 | A6 !courtesy!=c2 B2 c2 | %45
w: sweet, O tell me, live I or|die? tell me my|sweet, O tell me, live I or|die? tell me my|
 G3 A BG c2 B2 c2 |[M:4/4] G6 G2 x4 | (BABc d4) x4 |[M:4/4][K:treble-8] z2 A2 (cBcd | e2) e2 dcBA | %50
w: sweet, O tell me, live I or|die? She|smiles, * * * *|she smiles, * * *|* fa la la la la|
 G4 c4 | d8 | G8 | g8 | d8 | B8 | c8 | G8 | (B6 c2) | d8- | d4 d4 | !fermata!G8 |] x8 |] %63
w: la la|la|la.|Ah,|she|frowns,|Ay|me,|ay *|me,|* I|die,||
V:4
 z2 G2 G2 G2 | d3 e d2 c2 | B8 | x8 | x2 B2 [GA]2 A2 | B2 G2 B2 A2 |[M:4/4] G2 B2 A2 A2 | %7
 B2 c2 A2 A2 | G4 B2 Bc | d4 A2 AB | c6 A2 | A2 A2 ^FE=FG | A4 z EEF | G4 x[I:staff +1] DDE | %14
[I:staff -1] ^FG AB c2 B2 | A2 G2 B2 A2 | G2- G2 x2 B2 | d2- d2 x2 G2 | d2- d2 x4 | x2 d2 g2 e2 | %20
 ^f2 g2 e2 e2 | d2 G2 c2 A2 | B2 c2 A2 A2 | G2 A2 d2- d2 | x2 G2 d2- d2 | x4 x2 d2 | g2 e2 ^f2 g2 | %27
 e2 e2 d2 G2 | c2 A2 B2 c2 | A2 A2 G3 ^F | GA Bc d2 d2 | d2 ^c2 d4- | d2 A2 c3 d | e2 c2 B2 G2 | %34
 d8- | d8 | x2 B2 c2 d2 | e2 ^f2 g2 fe | d8- | d8 |[M:4/4] d4 z2 c2 x4 | c2 c2 x8 | %42
[M:3/2] c6 c2 c2 c2 | c6 A2 A2 A2 | A6 A2 A2 A2 | A6 A2 A2 A2 | G6 G2 G2 G2 |[M:3/2] G3 G BABc d4 | %48
 z2 A2 x4 |[M:4/4] cBcd e4 | z2 g2 ^fedc | Bc d2 cBAG | ^F2 G4 F2 | G8 | z4 _B4- | B4 A4 | G8 | %57
 z4 c4- | c4 B4 | x4 d4- | d4 ^F2 G2 | A4 A4 |] G8 |] %63
V:5
 x8 | x2[I:staff +1] D2 D2 D2 |[I:staff -1] G3 A B2 G2 | ^F3 G A2 A2 | D2 G2 G2 ^F2 | G4 x4 | %6
[M:4/4] x2 G2 G2 ^F2 | G2 E2 ^F2 F2 | G4 G2 GA | B4 ^F2 FG | A4 G2 !courtesy!=F2 | E4 DAAB | %12
 c4 z GGA | B3 c d2 B2 | A2 ^FG A2 G2 | E^F G2- G2 F2 | G2 B2 d2- d2 | x2 A2 B2- B2 | x2 A2 B2 c2 | %19
 A2 B2 ^cB c2 | d2 B2 G2 A2 | D2 E2 ^FE F2 | G4 x2 A2 | B4 x2 A2 | B2- B2 x2 A2 | B2 c2 A2 B2 | %26
 ^cB c2 d2 B2 | G2 A2 D2 E2 | ^FE F2 G4 | x2 d2 B2 B2 | c2 B2 A4 | G4 ^F2 D2 | ^F3 G A2 A2 | %33
 E3 FGA B2 | A2 A2 G2 B2 | A2 G2 G2 ^F2 | G2 G2 A2 GF |[I:staff +1] E4[I:staff -1] x2 A2 | %38
 B2 ^c2 d2 =cB | A2 B2 A2 G2 |[M:4/4][I:staff +1] ^F6[I:staff -1] A2 x4 | G2 !courtesy!=F2 x8 | %42
[M:3/2] E3 F G2 A2 G2 F2 | E6 F2 E2 D2 | ^C3 D E2 F2 E2 D2 | ^C6 E2 D2 =C2 | %46
[I:staff +1] B,3 C D2[I:staff -1] E2 D2 C2 | %47
[M:3/2][I:staff +1] B,A,B,C[I:staff -1] D4 x2[I:staff +1] D2 |[I:staff -1] ^FEFG x4 | %49
[M:4/4] A4 x2[I:staff +1] E2 |[I:staff -1] GABc d4 | dc BA G2 cB | A2 G2 A4 | B8 | z4 G4- | %55
 G4 ^F4 | G8 | z4 E4- | E4 D4 | d4 B4- | B2 A4 G2- | G2 ^FE F4 |] !fermata!G8 |] %63
V:6
 z8 | x8 | z2 G,2 G,2 G,2 | D3 E D2 C2 | B,2 G,2 D2 D2 | G,2[I:staff -1] G2 G2 ^F2 | %6
[M:4/4] G2[I:staff +1] G,2 D2 D2 | G,2 C2 D2 D2 | E8 | B,2 B, C D4 | A,2 A,B, C2 D2 | A,2 A,2 D4 | %12
 z A,A,B, C4 | z G,G,A, B,3 C | D3 C/B,/ A,2 B,2 | C4 D4 | G,8 | x2[I:staff -1] D2 G2- G2 | %18
[I:staff +1] x2[I:staff -1] D2 G2 E2 | ^F2 G2[I:staff +1] E2 E2 | D2 G,2 C2 A,2 | B,2 C2 A,2 A,2 | %22
 G,2 C2 D2 D2 | G,4 x2[I:staff -1] D2 | G2- G2[I:staff +1] x2[I:staff -1] D2 | G2 E2 ^F2 G2 | %26
[I:staff +1] E2 E2 D2 G,2 | C2 A,2 B,2 C2 | A,2 A,2 G,2 C2 | D2 D2[I:staff -1] E3 D | EF G2 D2 F2 | %31
[I:staff +1] E2 E2 D4- | D4 z2 A,2 | C3 D E2[I:staff -1] G2 | ^F2 D2[I:staff +1] B,2 G,2 | %35
 ^F,2 G,2 D2 D2 | G,4 z2 B,2 | C2 D2 E2 ^F2 | G2 ^FE D3 E | ^FD G2 F2 G2 |[M:4/4] D6 F2 E2 F2 | %41
 x12 |[M:3/2] C3 DEC F2 E2 F2 | C6 D2 ^C2 D2 | A,3 B,^CA, D2 C2 D2 | A,6 !courtesy!=C2 B,2 C2 | %46
 G,3 A,B,G, C2 B,2 C2 |[M:3/2] G,6 G,2 x4 | B,A,B,C D4 |[M:4/4] z2 A,2 CB,CD | E2 E2 DCB,A, | %51
 G,4 C4 | D8 | G,8 | G8 | D8 | B,8 | C8 | G,8 | B,6 C2 | D8- | D4 D4 |] !fermata!G,8 |] %63

